X: 85
U:~=!turn!
M:C
L:1/8
K:F
f | c>F F/F/F c<FA<F | c<F F/F/F c2 A<c | B>G G/G/G B<GA<G | B>G G/G/G c2 A :| G | Fffg fd{/d}cA | Fffg fd{/d}cA |
g | c<Fd<F c<FA<f | c<F F/F/F ~c2 A<c | _B<Gd<G B<GA<G | B<G G/G/G c2 A :| G | Ffef fcAF | Ffeg fcAF |


